X:53
T: Bublichki
T: Pretzels
O:russia
Z: John Chambers <jc@trillian.mit.edu> http://trillian.mit.edu/~jc/music/
M: 2/4
L: 1/8
K: Dm
zA, DE \
| "Dm"F2 ED- | DG FE | F2 ED- | DD FA \
| d2 ^cd- | df ed | A4 | zA B=B |
| "F"c2 BA- | Ad cB | A2 GF- | FA cB \
| "Dm"A2 GF- | FG "A7"FE | "Dm"D4 ||
|| "C7"zC FG \
| "F"A2 GF- | Fc _cB | A2 GF- | FC FA \
| c2 =Bc- | cf ed | "Dm"A4 | "A7"zA de |
| "Dm"f2 ed- | dA cB | A2 GF- | "Dm"FA cB \
| "Dm"A2 GF- |1 FG "A7"FE | "Dm"D4 :|2 FA "A7"^cA | "Dm"d4 |]
%%sep 5 5 5cm
